X:1
T: Hoddam Castle
C:
R:Jig
Q:180
K:A
M:6/8
L:1/16
E2|A4A2 A2B2c2|d2B2A2 G2F2E2|A2B2A2 A2c2e2|e2f2e2 d2c2B2|c4A2 A4F2|d4B2 B4G2|A2B2c2 B2c2G2|A6 A4G2|
A4A2 A2B2c2|d2B2A2 G2F2E2|A2B2A2 A2c2e2|e2f2e2 d2c2B2|c4A2 A4F2|d4B2 B4G2|A2B2c2 B2c2G2|A6A4cd|
e4c2 c4A2|d4B2 B4G2|A2B2c2 B2c2A2|G4 E2E4cd|e4c2 c4A2|d4B2 B4G2|A2B2c2 B2c2^d2|e2B2G2 E4cd|
e4c2 c4A2|d4B2 B4G2|A2B2c2 B2c2A2|G4E2 E2F2G2|A4A2 F4B2|G4c2 A4d2|B2e2d2 c2B2A2|B2E2G2 A4||
